images/3233342.svg

<?xml version="1.0" encoding="UTF-8"?>
<svg xmlns="http://www.w3.org/2000/svg" xmlns:xlink="http://www.w3.org/1999/xlink" width="300pt" height="300pt" viewBox="0 0 300 300" version="1.1">
<defs>
<g>
<symbol overflow="visible" id="glyph0-0">
<path style="stroke:none;" d="M 0.546875 1.9375 L 0.546875 -7.75 L 6.046875 -7.75 L 6.046875 1.9375 Z M 1.171875 1.328125 L 5.4375 1.328125 L 5.4375 -7.140625 L 1.171875 -7.140625 Z M 1.171875 1.328125 "/>
</symbol>
<symbol overflow="visible" id="glyph0-1">
<path style="stroke:none;" d="M 1.078125 -8.015625 L 2.546875 -8.015625 L 6.09375 -1.3125 L 6.09375 -8.015625 L 7.15625 -8.015625 L 7.15625 0 L 5.6875 0 L 2.125 -6.703125 L 2.125 0 L 1.078125 0 Z M 1.078125 -8.015625 "/>
</symbol>
<symbol overflow="visible" id="glyph0-2">
<path style="stroke:none;" d="M 1.078125 -8.015625 L 2.171875 -8.015625 L 2.171875 -4.734375 L 6.109375 -4.734375 L 6.109375 -8.015625 L 7.1875 -8.015625 L 7.1875 0 L 6.109375 0 L 6.109375 -3.8125 L 2.171875 -3.8125 L 2.171875 0 L 1.078125 0 Z M 1.078125 -8.015625 "/>
</symbol>
</g>
</defs>
<g id="surface29513">
<rect x="0" y="0" width="300" height="300" style="fill:rgb(100%,100%,100%);fill-opacity:1;stroke:none;"/>
<path style="fill:none;stroke-width:1.2;stroke-linecap:butt;stroke-linejoin:miter;stroke:rgb(0%,0%,0%);stroke-opacity:1;stroke-miterlimit:10;" d="M 264.75 175.074219 L 239.789062 168.402344 "/>
<path style="fill:none;stroke-width:1.2;stroke-linecap:butt;stroke-linejoin:miter;stroke:rgb(0%,0%,0%);stroke-opacity:1;stroke-miterlimit:10;" d="M 239.789062 168.402344 L 221.53125 186.683594 "/>
<path style="fill:none;stroke-width:1.2;stroke-linecap:butt;stroke-linejoin:miter;stroke:rgb(0%,0%,0%);stroke-opacity:1;stroke-miterlimit:10;" d="M 233.660156 165.9375 L 219.054688 180.5625 "/>
<path style="fill:none;stroke-width:1.2;stroke-linecap:butt;stroke-linejoin:miter;stroke:rgb(0%,0%,100%);stroke-opacity:1;stroke-miterlimit:10;" d="M 233.085938 143.449219 L 236.4375 155.925781 "/>
<path style="fill:none;stroke-width:1.2;stroke-linecap:butt;stroke-linejoin:miter;stroke:rgb(0%,0%,0%);stroke-opacity:1;stroke-miterlimit:10;" d="M 236.4375 155.925781 L 239.789062 168.402344 "/>
<path style="fill:none;stroke-width:1.2;stroke-linecap:butt;stroke-linejoin:miter;stroke:rgb(0%,0%,0%);stroke-opacity:1;stroke-miterlimit:10;" d="M 221.53125 186.683594 L 209.050781 183.351562 "/>
<path style="fill:none;stroke-width:1.2;stroke-linecap:butt;stroke-linejoin:miter;stroke:rgb(0%,0%,100%);stroke-opacity:1;stroke-miterlimit:10;" d="M 209.050781 183.351562 L 196.570312 180.015625 "/>
<path style="fill:none;stroke-width:1.2;stroke-linecap:butt;stroke-linejoin:miter;stroke:rgb(0%,0%,100%);stroke-opacity:1;stroke-miterlimit:10;" d="M 196.570312 180.015625 L 193.21875 167.539062 "/>
<path style="fill:none;stroke-width:1.2;stroke-linecap:butt;stroke-linejoin:miter;stroke:rgb(0%,0%,0%);stroke-opacity:1;stroke-miterlimit:10;" d="M 193.21875 167.539062 L 189.867188 155.0625 "/>
<path style="fill:none;stroke-width:1.2;stroke-linecap:butt;stroke-linejoin:miter;stroke:rgb(0%,0%,100%);stroke-opacity:1;stroke-miterlimit:10;" d="M 201.769531 175.941406 L 199.089844 165.960938 "/>
<path style="fill:none;stroke-width:1.2;stroke-linecap:butt;stroke-linejoin:miter;stroke:rgb(0%,0%,0%);stroke-opacity:1;stroke-miterlimit:10;" d="M 199.089844 165.960938 L 196.40625 155.980469 "/>
<path style=" stroke:none;fill-rule:nonzero;fill:rgb(100%,100%,100%);fill-opacity:1;" d="M 192.570312 173.515625 L 200.570312 173.515625 L 200.570312 186.515625 L 192.570312 186.515625 Z M 192.570312 173.515625 "/>
<g style="fill:rgb(0%,0%,100%);fill-opacity:1;">
  <use xlink:href="#glyph0-1" x="192.570312" y="183.416992"/>
</g>
<path style="fill:none;stroke-width:1.2;stroke-linecap:butt;stroke-linejoin:miter;stroke:rgb(0%,0%,0%);stroke-opacity:1;stroke-miterlimit:10;" d="M 189.867188 155.0625 L 208.125 136.78125 "/>
<path style="fill:none;stroke-width:1.2;stroke-linecap:butt;stroke-linejoin:miter;stroke:rgb(0%,0%,0%);stroke-opacity:1;stroke-miterlimit:10;" d="M 189.867188 155.0625 L 164.90625 148.394531 "/>
<path style="fill:none;stroke-width:1.2;stroke-linecap:butt;stroke-linejoin:miter;stroke:rgb(0%,0%,0%);stroke-opacity:1;stroke-miterlimit:10;" d="M 208.125 136.78125 L 220.605469 140.117188 "/>
<path style="fill:none;stroke-width:1.2;stroke-linecap:butt;stroke-linejoin:miter;stroke:rgb(0%,0%,100%);stroke-opacity:1;stroke-miterlimit:10;" d="M 220.605469 140.117188 L 233.085938 143.449219 "/>
<path style="fill:none;stroke-width:1.2;stroke-linecap:butt;stroke-linejoin:miter;stroke:rgb(0%,0%,0%);stroke-opacity:1;stroke-miterlimit:10;" d="M 209.050781 143.320312 L 219.035156 145.988281 "/>
<path style="fill:none;stroke-width:1.2;stroke-linecap:butt;stroke-linejoin:miter;stroke:rgb(0%,0%,100%);stroke-opacity:1;stroke-miterlimit:10;" d="M 219.035156 145.988281 L 229.019531 148.65625 "/>
<path style=" stroke:none;fill-rule:nonzero;fill:rgb(100%,100%,100%);fill-opacity:1;" d="M 229.085938 136.949219 L 237.085938 136.949219 L 237.085938 149.949219 L 229.085938 149.949219 Z M 229.085938 136.949219 "/>
<g style="fill:rgb(0%,0%,100%);fill-opacity:1;">
  <use xlink:href="#glyph0-1" x="229.085938" y="146.850586"/>
</g>
<path style="fill:none;stroke-width:1.2;stroke-linecap:butt;stroke-linejoin:miter;stroke:rgb(0%,0%,0%);stroke-opacity:1;stroke-miterlimit:10;" d="M 164.90625 148.394531 L 161.554688 135.917969 "/>
<path style="fill:none;stroke-width:1.2;stroke-linecap:butt;stroke-linejoin:miter;stroke:rgb(0%,0%,100%);stroke-opacity:1;stroke-miterlimit:10;" d="M 161.554688 135.917969 L 158.199219 123.441406 "/>
<path style="fill:none;stroke-width:1.2;stroke-linecap:butt;stroke-linejoin:miter;stroke:rgb(0%,0%,100%);stroke-opacity:1;stroke-miterlimit:10;" d="M 158.199219 123.441406 L 145.71875 120.105469 "/>
<path style="fill:none;stroke-width:1.2;stroke-linecap:butt;stroke-linejoin:miter;stroke:rgb(0%,0%,0%);stroke-opacity:1;stroke-miterlimit:10;" d="M 145.71875 120.105469 L 133.238281 116.769531 "/>
<path style=" stroke:none;fill-rule:nonzero;fill:rgb(100%,100%,100%);fill-opacity:1;" d="M 150.199219 116.941406 L 167.199219 116.941406 L 167.199219 129.941406 L 150.199219 129.941406 Z M 150.199219 116.941406 "/>
<g style="fill:rgb(0%,0%,100%);fill-opacity:1;">
  <use xlink:href="#glyph0-1" x="150.199219" y="126.842773"/>
  <use xlink:href="#glyph0-2" x="158.182617" y="126.842773"/>
</g>
<path style="fill:none;stroke-width:1.2;stroke-linecap:butt;stroke-linejoin:miter;stroke:rgb(0%,0%,0%);stroke-opacity:1;stroke-miterlimit:10;" d="M 133.238281 116.769531 L 129.886719 104.292969 "/>
<path style="fill:none;stroke-width:1.2;stroke-linecap:butt;stroke-linejoin:miter;stroke:rgb(0%,0%,100%);stroke-opacity:1;stroke-miterlimit:10;" d="M 129.886719 104.292969 L 126.535156 91.820312 "/>
<path style="fill:none;stroke-width:1.2;stroke-linecap:butt;stroke-linejoin:miter;stroke:rgb(0%,0%,0%);stroke-opacity:1;stroke-miterlimit:10;" d="M 126.699219 115.851562 L 124.015625 105.871094 "/>
<path style="fill:none;stroke-width:1.2;stroke-linecap:butt;stroke-linejoin:miter;stroke:rgb(0%,0%,100%);stroke-opacity:1;stroke-miterlimit:10;" d="M 124.015625 105.871094 L 121.335938 95.890625 "/>
<path style="fill:none;stroke-width:1.2;stroke-linecap:butt;stroke-linejoin:miter;stroke:rgb(0%,0%,0%);stroke-opacity:1;stroke-miterlimit:10;" d="M 114.984375 135.054688 L 133.238281 116.769531 "/>
<path style="fill:none;stroke-width:1.2;stroke-linecap:butt;stroke-linejoin:miter;stroke:rgb(0%,0%,100%);stroke-opacity:1;stroke-miterlimit:10;" d="M 126.535156 91.820312 L 114.054688 88.484375 "/>
<path style="fill:none;stroke-width:1.2;stroke-linecap:butt;stroke-linejoin:miter;stroke:rgb(0%,0%,0%);stroke-opacity:1;stroke-miterlimit:10;" d="M 114.054688 88.484375 L 101.574219 85.148438 "/>
<path style=" stroke:none;fill-rule:nonzero;fill:rgb(100%,100%,100%);fill-opacity:1;" d="M 122.535156 85.320312 L 130.535156 85.320312 L 130.535156 98.320312 L 122.535156 98.320312 Z M 122.535156 85.320312 "/>
<g style="fill:rgb(0%,0%,100%);fill-opacity:1;">
  <use xlink:href="#glyph0-1" x="122.535156" y="95.22168"/>
</g>
<path style="fill:none;stroke-width:1.2;stroke-linecap:butt;stroke-linejoin:miter;stroke:rgb(0%,0%,0%);stroke-opacity:1;stroke-miterlimit:10;" d="M 101.574219 85.148438 L 92.445312 94.289062 "/>
<path style="fill:none;stroke-width:1.2;stroke-linecap:butt;stroke-linejoin:miter;stroke:rgb(0%,0%,100%);stroke-opacity:1;stroke-miterlimit:10;" d="M 92.445312 94.289062 L 83.316406 103.429688 "/>
<path style="fill:none;stroke-width:1.2;stroke-linecap:butt;stroke-linejoin:miter;stroke:rgb(0%,0%,0%);stroke-opacity:1;stroke-miterlimit:10;" d="M 104.050781 91.273438 L 96.746094 98.585938 "/>
<path style="fill:none;stroke-width:1.2;stroke-linecap:butt;stroke-linejoin:miter;stroke:rgb(0%,0%,100%);stroke-opacity:1;stroke-miterlimit:10;" d="M 96.746094 98.585938 L 89.445312 105.898438 "/>
<path style="fill:none;stroke-width:1.2;stroke-linecap:butt;stroke-linejoin:miter;stroke:rgb(0%,0%,100%);stroke-opacity:1;stroke-miterlimit:10;" d="M 83.316406 103.429688 L 86.667969 115.90625 "/>
<path style="fill:none;stroke-width:1.2;stroke-linecap:butt;stroke-linejoin:miter;stroke:rgb(0%,0%,0%);stroke-opacity:1;stroke-miterlimit:10;" d="M 86.667969 115.90625 L 90.019531 128.382812 "/>
<path style=" stroke:none;fill-rule:nonzero;fill:rgb(100%,100%,100%);fill-opacity:1;" d="M 79.316406 96.929688 L 87.316406 96.929688 L 87.316406 109.929688 L 79.316406 109.929688 Z M 79.316406 96.929688 "/>
<g style="fill:rgb(0%,0%,100%);fill-opacity:1;">
  <use xlink:href="#glyph0-1" x="79.316406" y="106.831055"/>
</g>
<path style="fill:none;stroke-width:1.2;stroke-linecap:butt;stroke-linejoin:miter;stroke:rgb(0%,0%,0%);stroke-opacity:1;stroke-miterlimit:10;" d="M 90.019531 128.382812 L 114.984375 135.054688 "/>
<path style="fill:none;stroke-width:1.2;stroke-linecap:butt;stroke-linejoin:miter;stroke:rgb(0%,0%,0%);stroke-opacity:1;stroke-miterlimit:10;" d="M 94.085938 123.175781 L 114.054688 128.511719 "/>
<path style="fill:none;stroke-width:1.2;stroke-linecap:butt;stroke-linejoin:miter;stroke:rgb(0%,0%,0%);stroke-opacity:1;stroke-miterlimit:10;" d="M 114.984375 135.054688 L 121.6875 160.003906 "/>
<path style="fill:none;stroke-width:1.2;stroke-linecap:butt;stroke-linejoin:miter;stroke:rgb(0%,0%,0%);stroke-opacity:1;stroke-miterlimit:10;" d="M 121.6875 160.003906 L 146.648438 166.675781 "/>
<path style="fill:none;stroke-width:1.2;stroke-linecap:butt;stroke-linejoin:miter;stroke:rgb(0%,0%,0%);stroke-opacity:1;stroke-miterlimit:10;" d="M 122.613281 166.546875 L 142.582031 171.882812 "/>
<path style="fill:none;stroke-width:1.2;stroke-linecap:butt;stroke-linejoin:miter;stroke:rgb(0%,0%,0%);stroke-opacity:1;stroke-miterlimit:10;" d="M 103.429688 178.289062 L 121.6875 160.003906 "/>
<path style="fill:none;stroke-width:1.2;stroke-linecap:butt;stroke-linejoin:miter;stroke:rgb(0%,0%,0%);stroke-opacity:1;stroke-miterlimit:10;" d="M 146.648438 166.675781 L 153.351562 191.628906 "/>
<path style="fill:none;stroke-width:1.2;stroke-linecap:butt;stroke-linejoin:miter;stroke:rgb(0%,0%,0%);stroke-opacity:1;stroke-miterlimit:10;" d="M 153.351562 191.628906 L 135.09375 209.910156 "/>
<path style="fill:none;stroke-width:1.2;stroke-linecap:butt;stroke-linejoin:miter;stroke:rgb(0%,0%,0%);stroke-opacity:1;stroke-miterlimit:10;" d="M 147.226562 189.160156 L 132.617188 203.785156 "/>
<path style="fill:none;stroke-width:1.2;stroke-linecap:butt;stroke-linejoin:miter;stroke:rgb(0%,0%,0%);stroke-opacity:1;stroke-miterlimit:10;" d="M 135.09375 209.910156 L 110.132812 203.238281 "/>
<path style="fill:none;stroke-width:1.2;stroke-linecap:butt;stroke-linejoin:miter;stroke:rgb(0%,0%,0%);stroke-opacity:1;stroke-miterlimit:10;" d="M 110.132812 203.238281 L 103.429688 178.289062 "/>
<path style="fill:none;stroke-width:1.2;stroke-linecap:butt;stroke-linejoin:miter;stroke:rgb(0%,0%,0%);stroke-opacity:1;stroke-miterlimit:10;" d="M 115.335938 199.167969 L 109.972656 179.203125 "/>
<path style="fill:none;stroke-width:1.2;stroke-linecap:butt;stroke-linejoin:miter;stroke:rgb(0%,0%,0%);stroke-opacity:1;stroke-miterlimit:10;" d="M 103.429688 178.289062 L 78.46875 171.617188 "/>
<path style="fill:none;stroke-width:1.2;stroke-linecap:butt;stroke-linejoin:miter;stroke:rgb(0%,0%,0%);stroke-opacity:1;stroke-miterlimit:10;" d="M 78.46875 171.617188 L 69.339844 180.757812 "/>
<path style="fill:none;stroke-width:1.2;stroke-linecap:butt;stroke-linejoin:miter;stroke:rgb(0%,0%,100%);stroke-opacity:1;stroke-miterlimit:10;" d="M 69.339844 180.757812 L 60.210938 189.898438 "/>
<path style="fill:none;stroke-width:1.2;stroke-linecap:butt;stroke-linejoin:miter;stroke:rgb(0%,0%,100%);stroke-opacity:1;stroke-miterlimit:10;" d="M 60.210938 189.898438 L 47.730469 186.5625 "/>
<path style="fill:none;stroke-width:1.2;stroke-linecap:butt;stroke-linejoin:miter;stroke:rgb(0%,0%,0%);stroke-opacity:1;stroke-miterlimit:10;" d="M 47.730469 186.5625 L 35.25 183.230469 "/>
<path style="fill:none;stroke-width:1.2;stroke-linecap:butt;stroke-linejoin:miter;stroke:rgb(0%,0%,100%);stroke-opacity:1;stroke-miterlimit:10;" d="M 60.210938 189.898438 L 63.5625 202.375 "/>
<path style="fill:none;stroke-width:1.2;stroke-linecap:butt;stroke-linejoin:miter;stroke:rgb(0%,0%,0%);stroke-opacity:1;stroke-miterlimit:10;" d="M 63.5625 202.375 L 66.914062 214.851562 "/>
<path style=" stroke:none;fill-rule:nonzero;fill:rgb(100%,100%,100%);fill-opacity:1;" d="M 56.210938 183.398438 L 64.210938 183.398438 L 64.210938 196.398438 L 56.210938 196.398438 Z M 56.210938 183.398438 "/>
<g style="fill:rgb(0%,0%,100%);fill-opacity:1;">
  <use xlink:href="#glyph0-1" x="56.210938" y="193.299805"/>
</g>
</g>
</svg>

<svg xmlns="http://www.w3.org/2000/svg" xmlns:xlink="http://www.w3.org/1999/xlink" width="300pt" height="300pt" viewBox="0 0 300 300"><defs><symbol overflow="visible"><path d="M.547 1.938V-7.75h5.5v9.688zm.625-.61h4.266v-8.47H1.171zm0 0"/></symbol><symbol overflow="visible" id="a"><path d="M1.078-8.016h1.47l3.546 6.704v-6.704h1.062V0H5.688L2.124-6.703V0H1.078zm0 0"/></symbol><symbol overflow="visible" id="b"><path d="M1.078-8.016h1.094v3.282H6.11v-3.282h1.077V0H6.11v-3.813H2.17V0H1.078zm0 0"/></symbol></defs><g><path fill="#fff" d="M0 0h300v300H0z"/><path d="M264.75 175.074l-24.96-6.672M239.79 168.402l-18.26 18.282M233.66 165.938l-14.605 14.625" stroke-width="1.2" stroke="#000" stroke-miterlimit="10" fill="none"/><path d="M233.086 143.45l3.35 12.476" stroke-width="1.2" stroke="#00f" stroke-miterlimit="10" fill="none"/><path d="M236.438 155.926l3.35 12.476M221.53 186.684l-12.48-3.332" stroke-width="1.2" stroke="#000" stroke-miterlimit="10" fill="none"/><path d="M209.05 183.352l-12.48-3.336M196.57 180.016l-3.35-12.477" stroke-width="1.2" stroke="#00f" stroke-miterlimit="10" fill="none"/><path d="M193.22 167.54l-3.353-12.477" stroke-width="1.2" stroke="#000" stroke-miterlimit="10" fill="none"/><path d="M201.77 175.94l-2.68-9.98" stroke-width="1.2" stroke="#00f" stroke-miterlimit="10" fill="none"/><path d="M199.09 165.96l-2.684-9.98" stroke-width="1.2" stroke="#000" stroke-miterlimit="10" fill="none"/><path d="M192.57 173.516h8v13h-8zm0 0" fill="#fff"/><use xlink:href="#a" x="192.57" y="183.417" fill="#00f"/><path d="M189.867 155.063l18.258-18.282M189.867 155.063l-24.96-6.668M208.125 136.78l12.48 3.337" stroke-width="1.2" stroke="#000" stroke-miterlimit="10" fill="none"/><path d="M220.605 140.117l12.48 3.332" stroke-width="1.2" stroke="#00f" stroke-miterlimit="10" fill="none"/><path d="M209.05 143.32l9.985 2.668" stroke-width="1.2" stroke="#000" stroke-miterlimit="10" fill="none"/><path d="M219.035 145.988l9.985 2.668" stroke-width="1.2" stroke="#00f" stroke-miterlimit="10" fill="none"/><path d="M229.086 136.95h8v13h-8zm0 0" fill="#fff"/><use xlink:href="#a" x="229.086" y="146.851" fill="#00f"/><path d="M164.906 148.395l-3.35-12.477" stroke-width="1.2" stroke="#000" stroke-miterlimit="10" fill="none"/><path d="M161.555 135.918L158.2 123.44M158.2 123.44l-12.48-3.335" stroke-width="1.2" stroke="#00f" stroke-miterlimit="10" fill="none"/><path d="M145.72 120.105l-12.482-3.335" stroke-width="1.2" stroke="#000" stroke-miterlimit="10" fill="none"/><path d="M150.2 116.94h17v13h-17zm0 0" fill="#fff"/><g fill="#00f"><use xlink:href="#a" x="150.199" y="126.843"/><use xlink:href="#b" x="158.183" y="126.843"/></g><path d="M133.238 116.77l-3.35-12.477" stroke-width="1.2" stroke="#000" stroke-miterlimit="10" fill="none"/><path d="M129.887 104.293l-3.352-12.473" stroke-width="1.2" stroke="#00f" stroke-miterlimit="10" fill="none"/><path d="M126.7 115.852l-2.684-9.98" stroke-width="1.2" stroke="#000" stroke-miterlimit="10" fill="none"/><path d="M124.016 105.87l-2.68-9.98" stroke-width="1.2" stroke="#00f" stroke-miterlimit="10" fill="none"/><path d="M114.984 135.055l18.254-18.285" stroke-width="1.2" stroke="#000" stroke-miterlimit="10" fill="none"/><path d="M126.535 91.82l-12.48-3.336" stroke-width="1.2" stroke="#00f" stroke-miterlimit="10" fill="none"/><path d="M114.055 88.484l-12.48-3.336" stroke-width="1.2" stroke="#000" stroke-miterlimit="10" fill="none"/><path d="M122.535 85.32h8v13h-8zm0 0" fill="#fff"/><use xlink:href="#a" x="122.535" y="95.222" fill="#00f"/><path d="M101.574 85.148l-9.13 9.14" stroke-width="1.2" stroke="#000" stroke-miterlimit="10" fill="none"/><path d="M92.445 94.29l-9.13 9.14" stroke-width="1.2" stroke="#00f" stroke-miterlimit="10" fill="none"/><path d="M104.05 91.273l-7.304 7.313" stroke-width="1.2" stroke="#000" stroke-miterlimit="10" fill="none"/><path d="M96.746 98.586l-7.3 7.312M83.316 103.43l3.352 12.476" stroke-width="1.2" stroke="#00f" stroke-miterlimit="10" fill="none"/><path d="M86.668 115.906l3.352 12.477" stroke-width="1.2" stroke="#000" stroke-miterlimit="10" fill="none"/><path d="M79.316 96.93h8v13h-8zm0 0" fill="#fff"/><use xlink:href="#a" x="79.316" y="106.831" fill="#00f"/><path d="M90.02 128.383l24.964 6.672M94.086 123.176l19.97 5.336M114.984 135.055l6.704 24.95M121.688 160.004l24.96 6.672M122.613 166.547l19.97 5.336M103.43 178.29l18.257-18.286M146.648 166.676l6.704 24.953M153.352 191.63l-18.258 18.28M147.227 189.16l-14.61 14.625M135.094 209.91l-24.96-6.672M110.133 203.238l-6.703-24.95M115.336 199.168l-5.363-19.965M103.43 178.29l-24.96-6.673M78.47 171.617l-9.13 9.14" stroke-width="1.2" stroke="#000" stroke-miterlimit="10" fill="none"/><path d="M69.34 180.758l-9.13 9.14M60.21 189.898l-12.48-3.335" stroke-width="1.2" stroke="#00f" stroke-miterlimit="10" fill="none"/><path d="M47.73 186.563l-12.48-3.333" stroke-width="1.2" stroke="#000" stroke-miterlimit="10" fill="none"/><path d="M60.21 189.898l3.352 12.477" stroke-width="1.2" stroke="#00f" stroke-miterlimit="10" fill="none"/><path d="M63.563 202.375l3.35 12.477" stroke-width="1.2" stroke="#000" stroke-miterlimit="10" fill="none"/><path d="M56.21 183.398h8v13h-8zm0 0" fill="#fff"/><use xlink:href="#a" x="56.211" y="193.3" fill="#00f"/></g></svg>
